public/img/mo-icon-mypage.svg

<svg width="20" height="20" viewBox="0 0 20 20" fill="none" xmlns="http://www.w3.org/2000/svg">
<g clip-path="url(#clip0_44_221)">
<path d="M16.0948 18.1198H3.90479C3.69979 18.1198 3.52979 17.9498 3.52979 17.7448C3.52979 17.6648 3.55479 17.5948 3.59479 17.5298L6.54479 9.76979C6.59979 9.62479 6.73979 9.52979 6.89479 9.52979H12.8348C12.9848 9.52979 13.1248 9.61979 13.1798 9.75979L16.4398 17.5998C16.4898 17.7148 16.4748 17.8498 16.4048 17.9498C16.3348 18.0548 16.2198 18.1148 16.0948 18.1148V18.1198ZM4.45979 17.3698H15.5298L12.5798 10.2798H7.14979L4.45479 17.3698H4.45979Z" fill="#3B3B3B"/>
<path d="M9.99973 8.43988C8.18973 8.43988 6.71973 6.96988 6.71973 5.15988C6.71973 3.34988 8.18973 1.87988 9.99973 1.87988C11.8097 1.87988 13.2797 3.34988 13.2797 5.15988C13.2797 6.96988 11.8097 8.43988 9.99973 8.43988ZM9.99973 2.62988C8.60473 2.62988 7.46973 3.76488 7.46973 5.15988C7.46973 6.55488 8.60473 7.68988 9.99973 7.68988C11.3947 7.68988 12.5297 6.55488 12.5297 5.15988C12.5297 3.76488 11.3947 2.62988 9.99973 2.62988Z" fill="#3B3B3B"/>
</g>
<defs>
<clipPath id="clip0_44_221">
<rect width="20" height="20" fill="white"/>
</clipPath>
</defs>
</svg>

<svg xmlns="http://www.w3.org/2000/svg" width="20" height="20" fill="none" viewBox="0 0 20 20"><g fill="#3B3B3B" clip-path="url(#a)"><path d="M16.095 18.12H3.905a.378.378 0 0 1-.31-.59l2.95-7.76a.37.37 0 0 1 .35-.24h5.94c.15 0 .29.09.345.23l3.26 7.84c.05.115.035.25-.035.35a.37.37 0 0 1-.31.165zM4.46 17.37h11.07l-2.95-7.09H7.15l-2.695 7.09zM10 8.44c-1.81 0-3.28-1.47-3.28-3.28S8.19 1.88 10 1.88s3.28 1.47 3.28 3.28S11.81 8.44 10 8.44m0-5.81a2.533 2.533 0 0 0-2.53 2.53A2.533 2.533 0 0 0 10 7.69a2.533 2.533 0 0 0 2.53-2.53A2.533 2.533 0 0 0 10 2.63"/></g><defs><clipPath id="a"><path fill="#fff" d="M0 0h20v20H0z"/></clipPath></defs></svg>
